X:2107 
T:Tra va ny assylyn laadit oc 
T:Carval Yoseph
C:Tom Kermode, Bradda
O:Isle of Man
C:Traditional 
Z:Clague collection
N:Given as 'Carval Yoseph' in JFSS
B:Kiaull Vannin 1#07 
M:3/4 
L:1/4
Q:100 
K:D 
d|d F G|A>B=c|B2 (B/A/)|A2 d/e/|f e d|B>c d|e2 d/e/| 
e d|f>e f|e d B|A2 d|F2 G|A>B c|d2|| 

